dist/img/svg/ic_google-play.svg

<svg width="21" height="24" viewBox="0 0 21 24"  xmlns="http://www.w3.org/2000/svg">
<path d="M4.18868 0.843796C3.31228 0.345898 2.28328 0.35741 1.41248 0.850991L11.6185 10.5283L15.0471 7.0042L4.18868 0.843796Z" />
<path d="M0.392 1.84104C0.1428 2.25979 0 2.73898 0 3.24695V20.7252C0 21.2173 0.1302 21.6864 0.3654 22.0966L10.6288 11.5472L0.392 1.84104Z" />
<path d="M19.593 9.58292L16.3226 7.72803L12.6476 11.504L17.1514 15.7736L19.5944 14.3878C20.4736 13.887 21 12.9891 21 11.9846C20.9986 10.9802 20.4736 10.0823 19.593 9.58292Z" />
<path d="M11.6576 12.5229L1.36617 23.1011C1.81277 23.363 2.30277 23.5011 2.79557 23.5011C3.27157 23.5011 3.75037 23.3774 4.18857 23.1284L15.8604 16.5075L11.6576 12.5229Z" />
</svg>

<svg width="21" height="24" viewBox="0 0 21 24" xmlns="http://www.w3.org/2000/svg"><path d="M4.189.844A2.777 2.777 0 001.412.85l10.206 9.677 3.43-3.524L4.187.844zm-3.797.997C.142 2.26 0 2.739 0 3.247v17.478c0 .492.13.961.365 1.372l10.264-10.55L.392 1.841zm19.201 7.742l-3.27-1.855-3.675 3.776 4.503 4.27 2.443-1.386A2.74 2.74 0 0021 11.985a2.737 2.737 0 00-1.407-2.402zm-7.935 2.94L1.366 23.1c.447.262.937.4 1.43.4.476 0 .954-.124 1.393-.373l11.671-6.62-4.202-3.985z"/></svg>
